icons/svgs/van-shuttle-solid.svg

<svg width="24" height="24" viewBox="0 0 24 24" fill="none" xmlns="http://www.w3.org/2000/svg">
<path d="M2.4 6.0625V9.5H6V5.75H2.7C2.5125 5.75 2.4 5.90625 2.4 6.0625ZM20.475 9.5L17.4375 5.75H14.4V9.5H20.475ZM12 9.5V5.75H8.4V9.5H12ZM22.2 17H21.6C21.6 19.0703 19.9875 20.75 18 20.75C16.0125 20.75 14.4 19.0703 14.4 17H9.6C9.6 19.0703 7.9875 20.75 6 20.75C4.0125 20.75 2.4 19.0703 2.4 17H1.8C0.7875 17 0 16.1797 0 15.125V6.0625C0 4.53906 1.2 3.25 2.7 3.25H7.2H13.2H17.4375C18.15 3.25 18.7875 3.60156 19.275 4.14844L23.4375 9.30469C23.775 9.73438 24 10.3203 24 10.9062V15.125C24 16.1797 23.175 17 22.2 17ZM19.8 17C19.8 16.3359 19.425 15.75 18.9 15.3984C18.3375 15.0469 17.625 15.0469 17.1 15.3984C16.5375 15.75 16.2 16.3359 16.2 17C16.2 17.7031 16.5375 18.2891 17.1 18.6406C17.625 18.9922 18.3375 18.9922 18.9 18.6406C19.425 18.2891 19.8 17.7031 19.8 17ZM6 18.875C6.6375 18.875 7.2 18.5234 7.5375 17.9375C7.875 17.3906 7.875 16.6484 7.5375 16.0625C7.2 15.5156 6.6375 15.125 6 15.125C5.325 15.125 4.7625 15.5156 4.425 16.0625C4.0875 16.6484 4.0875 17.3906 4.425 17.9375C4.7625 18.5234 5.325 18.875 6 18.875Z" fill="black"/>
</svg>

<svg xmlns="http://www.w3.org/2000/svg" width="24" height="24" fill="currentColor" class="icon-van-shuttle-solid" viewBox="0 0 24 24">
  <mask id="a" width="24" height="18" x="0" y="3" maskUnits="userSpaceOnUse" style="mask-type:alpha">
    <path d="M2.4 6.063V9.5H6V5.75H2.7c-.187 0-.3.156-.3.313M20.475 9.5l-3.038-3.75H14.4V9.5zM12 9.5V5.75H8.4V9.5zM22.2 17h-.6c0 2.07-1.613 3.75-3.6 3.75s-3.6-1.68-3.6-3.75H9.6c0 2.07-1.612 3.75-3.6 3.75S2.4 19.07 2.4 17h-.6C.787 17 0 16.18 0 15.125V6.063C0 4.539 1.2 3.25 2.7 3.25h14.738c.712 0 1.35.352 1.837.898l4.163 5.157c.337.43.562 1.015.562 1.601v4.219C24 16.18 23.175 17 22.2 17m-2.4 0c0-.664-.375-1.25-.9-1.602-.562-.351-1.275-.351-1.8 0-.562.352-.9.938-.9 1.602 0 .703.338 1.29.9 1.64.525.352 1.237.352 1.8 0 .525-.35.9-.937.9-1.64M6 18.875c.638 0 1.2-.352 1.537-.937.338-.547.338-1.29 0-1.875-.337-.547-.9-.938-1.537-.938-.675 0-1.237.39-1.575.938-.337.585-.337 1.328 0 1.875.338.585.9.937 1.575.937"/>
  </mask>
  <g mask="url(#a)">
    <path d="M0 0h24v24H0z"/>
  </g>
</svg>
